X:7145
T:Holoindillegible. BF13.007
T:Campbells Are Coming,The,aka. BF13.007
M:6/8
L:1/8
Q:120
S:J.Lishman()MS,c1825,Lakes,Browne Coll.
R:Jig
O:England
A:Lakes
N:Better Known nowadays as The Campbells are Coming. Bar 6 - note
N:lengths
N:not clear.
Z:vmp.Cherri Graebe.
K:G
A|GBe dBG|B2BB2A|GBe dBG|ABAA2B|!GBe dBG|B2"!"dg2a|bag fed|B2BB2:|!
|:d|g2g gab|d2dd2B|g2g gab|e2"!"ee3|!gfe gab| d2Bg2a|gag fed|B2B B2:|]
W:Bar 6 ,not clear in ms.Bar 12 ,3 crotchets in MS. CGP.|]
